contributed-vectors/follower_analyzer.svg

<?xml version="1.0" encoding="UTF-8" standalone="no"?>
<svg
   xmlns:dc="http://purl.org/dc/elements/1.1/"
   xmlns:cc="http://creativecommons.org/ns#"
   xmlns:rdf="http://www.w3.org/1999/02/22-rdf-syntax-ns#"
   xmlns:svg="http://www.w3.org/2000/svg"
   xmlns="http://www.w3.org/2000/svg"
   id="svg14"
   version="1.1"
   viewBox="0 0 192 192"
   height="192"
   width="192">
  <metadata
     id="metadata20">
    <rdf:RDF>
      <cc:Work
         rdf:about="">
        <dc:format>image/svg+xml</dc:format>
        <dc:type
           rdf:resource="http://purl.org/dc/dcmitype/StillImage" />
        <dc:title></dc:title>
      </cc:Work>
    </rdf:RDF>
  </metadata>
  <defs
     id="defs18" />
  <g
     id="g824">
    <rect
       style="opacity:1;fill:#ffffff;fill-opacity:1;stroke:none;stroke-width:3.5;stroke-miterlimit:4;stroke-dasharray:none;stroke-opacity:1"
       id="rect820"
       width="113.32884"
       height="116.20521"
       x="39.335579"
       y="37.897396" />
    <path
       id="path53"
       style="opacity:1;fill:#fe827c;fill-opacity:1;stroke:none;stroke-width:4.44981432;stroke-miterlimit:4;stroke-dasharray:none;stroke-opacity:1"
       d="m 120.59294,96 c 0,13.58231 -11.01063,24.59294 -24.59294,24.59294 C 82.417695,120.59294 71.407062,109.58231 71.407064,96 71.407064,82.417696 82.417696,71.407064 96,71.407064 109.58231,71.407062 120.59294,82.417695 120.59294,96 Z M 96.248047,20.541016 c -44.73287,0 -50.770638,1.110542 -62.267578,11.447265 -5.85939,5.268102 -9.634188,11.966646 -11.898438,21.115235 -2.51256,10.1519 -2.534597,75.565674 -0.0293,85.675784 2.28426,9.2181 4.985438,14.15356 11.054688,20.1914 5.78386,5.75391 12.225792,9.13086 21.107422,11.06446 7.53219,1.6398 71.808819,1.97065 81.533209,0.41992 7.84027,-1.2503 17.04118,-5.4279 22.57031,-10.24805 5.19435,-4.52828 10.12778,-13.7788 11.96094,-22.42969 2.0237,-9.55017 2.05515,-73.838561 0.041,-83.33984 C 167.51125,41.186326 161.17764,32.146713 150.83984,26.636719 140.5048,21.128203 135.25633,20.541016 96.248047,20.541016 Z m 40.742183,25.341796 c 5.21698,-3.91e-4 9.44658,4.228332 9.44727,9.445313 3.9e-4,5.217744 -4.22953,9.447657 -9.44727,9.447266 -5.21698,-6.91e-4 -9.4457,-4.230288 -9.44531,-9.447266 6.9e-4,-5.216216 4.22909,-9.444622 9.44531,-9.445313 z M 96,56.560547 C 117.78159,56.561067 135.43893,74.218408 135.43945,96 135.43893,117.78159 117.78159,135.43893 96,135.43945 c -8.058414,-1.9e-4 -15.552327,-2.41714 -21.79647,-6.56557 l -17.857261,17.74218 c -6.945785,6.90102 -17.294902,-4.22095 -10.813243,-10.82084 l 18.780418,-19.123 C 60.191837,110.44133 56.560739,104.02998 56.560547,96 56.561066,74.218406 74.218406,56.561066 96,56.560547 Z" />
  </g>
</svg>

<svg xmlns="http://www.w3.org/2000/svg" width="192" height="192"><path d="M39.336 37.897h113.329v116.205H39.336z" style="opacity:1;fill:#fff;fill-opacity:1;stroke:none;stroke-width:3.5;stroke-miterlimit:4;stroke-dasharray:none;stroke-opacity:1"/><path d="M120.593 96c0 13.582-11.01 24.593-24.593 24.593-13.582 0-24.593-11.01-24.593-24.593 0-13.582 11.01-24.593 24.593-24.593 13.582 0 24.593 11.01 24.593 24.593ZM96.248 20.541c-44.733 0-50.77 1.11-62.268 11.447-5.859 5.268-9.634 11.967-11.898 21.116-2.513 10.151-2.535 75.565-.03 85.675 2.285 9.218 4.986 14.154 11.055 20.192 5.784 5.754 12.226 9.13 21.108 11.064 7.532 1.64 71.809 1.97 81.533.42 7.84-1.25 17.041-5.428 22.57-10.248 5.195-4.528 10.128-13.779 11.961-22.43 2.024-9.55 2.055-73.838.041-83.34-2.809-13.25-9.142-22.29-19.48-27.8-10.335-5.509-15.584-6.096-54.592-6.096Zm40.742 25.342a9.447 9.447 0 1 1 .002 18.893 9.447 9.447 0 0 1-.002-18.893zM96 56.56c21.782 0 39.439 17.657 39.44 39.439-.001 21.782-17.658 39.439-39.44 39.44a39.257 39.257 0 0 1-21.796-6.566l-17.858 17.742c-6.946 6.901-17.295-4.22-10.813-10.82l18.78-19.124c-4.121-6.23-7.752-12.642-7.752-20.672 0-21.782 17.657-39.439 39.439-39.44Z" style="opacity:1;fill:#fe827c;fill-opacity:1;stroke:none;stroke-width:4.44981432;stroke-miterlimit:4;stroke-dasharray:none;stroke-opacity:1"/></svg>
